images/icon-calendar.svg

<svg height="15" viewBox="0 0 14 15" width="14" xmlns="http://www.w3.org/2000/svg"><g fill="#1bb24b" fill-rule="evenodd"><path d="m12.0168204 13.0067619h-11.01537869v-7.94561904h11.01537869zm-9.01249526-11.67009523c0-.07247619.02343003-.132.07038611-.17847619.04695609-.04647619.10687551-.06980953.17995031-.06980953h.50067285c.0730748 0 .13309025.0232381.17995031.06980953.04686006.04657142.07038611.10609523.07038611.17847619v2.23466666c0 .07247619-.02343003.132-.07038611.17847619-.04695609.04647619-.10687551.06980953-.17995031.06980953h-.50067285c-.0730748 0-.13309025-.0232381-.17995031-.06980953-.04686005-.04657142-.07038611-.106-.07038611-.17847619zm6.00845823 0c0-.07247619.02333401-.132.07019407-.17847619s.1068755-.06980953.18004633-.06980953h.50057682c.07317083 0 .13299423.0232381.18004633.06980953.04686006.04657142.07029008.10609523.07029008.17847619v2.23466666c0 .07247619-.02343002.13190477-.07029008.17847619-.0470521.04647619-.1068755.06980953-.18004633.06980953h-.50057682c-.07317083 0-.13318627-.0232381-.18004633-.06980953-.04686006-.04657142-.07019407-.106-.07019407-.17847619zm3.70828233 1.03971428c-.198003-.19657143-.4328794-.29485714-.7040532-.29485714h-1.0013457v-.74495238c0-.34133333-.1226236-.63361905-.3677746-.87676191-.2452472-.24314285-.5397549-.3647619-.88409956-.3647619h-.50057682c-.34434461 0-.63894843.12161905-.88409952.3647619-.24524711.24314286-.36777464.53542858-.36777464.87676191v.74495238h-3.00413309v-.74495238c0-.34133333-.12262356-.63361905-.36777465-.87676191-.24515108-.24314285-.53985092-.3647619-.88409951-.3647619h-.50067285c-.34424859 0-.63894843.12161905-.88409951.3647619-.24515109.24314286-.36777465.53542858-.36777465.87676191v.74495238h-1.00134569c-.27126981 0-.5059542.09828571-.7041492.29485714-.19819501.19657143-.29729251.42942857-.29729251.69838095v9.9320952c0 .2688572.0990975.5016191.29729251.6982858.198195.1965714.43287939.2948571.7041492.2948571h11.01537869c.2711738 0 .5060503-.0982857.7040532-.2948571.198195-.1965715.2972925-.4294286.2972925-.6982858v-9.9320952c0-.26904761-.0990014-.50180952-.2971004-.69838095z"/><path d="m5.54375624 11.2778476c.07067419.07.15440774.1051429.25110462.1051429.09679291-.0000953.18052646-.0351429.25120065-.1052381l3.42606567-3.39790478c.07048214-.07.10591526-.15304762.10591526-.24904762 0-.09590476-.03543312-.17885714-.10591526-.24895238l-.56933051-.56457143c-.07067419-.07009524-.15431171-.10514286-.2510086-.10514286-.09669688 0-.18052645.03504762-.25110462.10514286l-2.60572656 2.58438095-1.17735899-1.16761904c-.07067418-.07009524-.15431171-.10514286-.25110462-.10514286-.0967929 0-.18043043.03504762-.25110461.10514286l-.56913847.56457142c-.07067419.07-.10601128.15304762-.10601128.24904762 0 .09590476.03533709.17885715.10601128.24895238z"/></g></svg>

<?xml version="1.0" encoding="UTF-8" standalone="no"?>
<svg width="14px" height="15px" viewBox="0 0 14 15" version="1.1" xmlns="http://www.w3.org/2000/svg" xmlns:xlink="http://www.w3.org/1999/xlink">
    <!-- Generator: Sketch 3.7.2 (28276) - http://www.bohemiancoding.com/sketch -->
    <title>icon-calendar</title>
    <desc>Created with Sketch.</desc>
    <defs></defs>
    <g id="Symbols" stroke="none" stroke-width="1" fill="none" fill-rule="evenodd">
        <g id="icon-calendar" fill="#1BB24B">
            <g>
                <path d="M12.0168204,13.0067619 L1.00144171,13.0067619 L1.00144171,5.06114286 L12.0168204,5.06114286 L12.0168204,13.0067619 Z M3.00432514,1.33666667 C3.00432514,1.26419048 3.02775517,1.20466667 3.07471125,1.15819048 C3.12166734,1.11171429 3.18158676,1.08838095 3.25466156,1.08838095 L3.75533441,1.08838095 C3.82840921,1.08838095 3.88842466,1.11161905 3.93528472,1.15819048 C3.98214478,1.2047619 4.00567083,1.26428571 4.00567083,1.33666667 L4.00567083,3.57133333 C4.00567083,3.64380952 3.9822408,3.70333333 3.93528472,3.74980952 C3.88832863,3.79628571 3.82840921,3.81961905 3.75533441,3.81961905 L3.25466156,3.81961905 C3.18158676,3.81961905 3.12157131,3.79638095 3.07471125,3.74980952 C3.0278512,3.7032381 3.00432514,3.64380952 3.00432514,3.57133333 L3.00432514,1.33666667 Z M9.01278337,1.33666667 C9.01278337,1.26419048 9.03611738,1.20466667 9.08297744,1.15819048 C9.1298375,1.11171429 9.18985294,1.08838095 9.26302377,1.08838095 L9.76360059,1.08838095 C9.83677142,1.08838095 9.89659482,1.11161905 9.94364692,1.15819048 C9.99050698,1.2047619 10.013937,1.26428571 10.013937,1.33666667 L10.013937,3.57133333 C10.013937,3.64380952 9.99050698,3.7032381 9.94364692,3.74980952 C9.89659482,3.79628571 9.83677142,3.81961905 9.76360059,3.81961905 L9.26302377,3.81961905 C9.18985294,3.81961905 9.1298375,3.79638095 9.08297744,3.74980952 C9.03611738,3.7032381 9.01278337,3.64380952 9.01278337,3.57133333 L9.01278337,1.33666667 Z M12.7210657,2.37638095 C12.5230627,2.17980952 12.2881863,2.08152381 12.0170125,2.08152381 L11.0156668,2.08152381 L11.0156668,1.33657143 C11.0156668,0.995238095 10.8930432,0.702952381 10.6478922,0.459809524 C10.402645,0.216666667 10.1081373,0.095047619 9.76379264,0.095047619 L9.26321582,0.095047619 C8.91887121,0.095047619 8.62426739,0.216666667 8.3791163,0.459809524 C8.13386919,0.702952381 8.01134166,0.995238095 8.01134166,1.33657143 L8.01134166,2.08152381 L5.00720857,2.08152381 L5.00720857,1.33657143 C5.00720857,0.995238095 4.88458501,0.702952381 4.63943392,0.459809524 C4.39428284,0.216666667 4.099583,0.095047619 3.75533441,0.095047619 L3.25466156,0.095047619 C2.91041297,0.095047619 2.61571313,0.216666667 2.37056205,0.459809524 C2.12541096,0.702952381 2.0027874,0.995238095 2.0027874,1.33657143 L2.0027874,2.08152381 L1.00144171,2.08152381 C0.730171904,2.08152381 0.49548751,2.17980952 0.297292506,2.37638095 C0.099097502,2.57295238 0,2.80580952 0,3.0747619 L0,13.0068571 C0,13.2757143 0.099097502,13.5084762 0.297292506,13.7051429 C0.49548751,13.9017143 0.730171904,14 1.00144171,14 L12.0168204,14 C12.2879942,14 12.5228707,13.9017143 12.7208736,13.7051429 C12.9190686,13.5085714 13.0181661,13.2757143 13.0181661,13.0068571 L13.0181661,3.0747619 C13.0181661,2.80571429 12.9191647,2.57295238 12.7210657,2.37638095 L12.7210657,2.37638095 Z" id="Fill-1"></path>
                <path d="M5.54375624,11.2778476 C5.61443043,11.3478476 5.69816398,11.3829905 5.79486086,11.3829905 C5.89165377,11.3828952 5.97538732,11.3478476 6.04606151,11.2777524 L9.47212718,7.87984762 C9.54260932,7.80984762 9.57804244,7.7268 9.57804244,7.6308 C9.57804244,7.53489524 9.54260932,7.45194286 9.47212718,7.38184762 L8.90279667,6.81727619 C8.83212248,6.74718095 8.74848496,6.71213333 8.65178807,6.71213333 C8.55509119,6.71213333 8.47126162,6.74718095 8.40068345,6.81727619 L5.79495689,9.40165714 L4.6175979,8.2340381 C4.54692372,8.16394286 4.46328619,8.12889524 4.36649328,8.12889524 C4.26970038,8.12889524 4.18606285,8.16394286 4.11538867,8.2340381 L3.5462502,8.79860952 C3.47557601,8.86860952 3.44023892,8.95165714 3.44023892,9.04765714 C3.44023892,9.1435619 3.47557601,9.22651429 3.5462502,9.29660952 L5.54375624,11.2778476 Z" id="Fill-3"></path>
            </g>
        </g>
    </g>
</svg>
